dist/img/partners/partner_6.svg

<svg width="211" height="65" viewBox="0 0 211 65" fill="none" xmlns="http://www.w3.org/2000/svg">
<path d="M55.0271 19.5898H76.2072V23.5374H67.8677V45.7906H63.2967V23.5374H54.9922L55.0271 19.5898ZM75.2999 26.8213H79.208V30.4894H79.2778C79.4173 29.9653 79.6616 29.4763 80.0105 28.9872C80.3594 28.4981 80.7782 28.044 81.3016 27.6597C81.7901 27.2405 82.3483 26.9261 82.9764 26.6815C83.5696 26.437 84.1977 26.2972 84.8258 26.2972C85.3143 26.2972 85.6632 26.3322 85.8377 26.3322C86.0121 26.3671 86.2215 26.402 86.3959 26.402V30.4195C86.1168 30.3496 85.8028 30.3147 85.4887 30.2798C85.1747 30.2448 84.8955 30.2099 84.5815 30.2099C83.8836 30.2099 83.2207 30.3496 82.5926 30.6291C81.9645 30.9086 81.4411 31.3278 80.9526 31.8518C80.499 32.4108 80.1152 33.0745 79.836 33.878C79.5569 34.6815 79.4173 35.6247 79.4173 36.6728V45.6858H75.2302L75.2999 26.8213ZM105.587 45.7906H101.47V43.1356H101.4C100.877 44.1138 100.109 44.8474 99.097 45.4413C98.0851 46.0352 97.0383 46.3146 95.9915 46.3146C93.5141 46.3146 91.6997 45.7208 90.5831 44.4631C89.4665 43.2404 88.9082 41.354 88.9082 38.8736V26.8213H93.0954V38.4544C93.0954 40.1313 93.4095 41.319 94.0724 41.9828C94.7005 42.6815 95.6077 43.0308 96.7592 43.0308C97.6315 43.0308 98.3643 42.8911 98.9574 42.6116C99.5506 42.3321 100.039 41.9828 100.388 41.5286C100.772 41.0745 101.016 40.5155 101.191 39.8867C101.365 39.2579 101.435 38.5592 101.435 37.8256V26.8213H105.622V45.7906H105.587ZM112.705 39.712C112.845 40.9347 113.298 41.7732 114.101 42.2972C114.904 42.7863 115.881 43.0308 116.997 43.0308C117.381 43.0308 117.835 42.9959 118.323 42.926C118.812 42.8561 119.3 42.7513 119.719 42.5767C120.172 42.402 120.521 42.1574 120.801 41.8081C121.08 41.4588 121.219 41.0396 121.184 40.5155C121.149 39.9915 120.975 39.5374 120.591 39.188C120.207 38.8387 119.754 38.5941 119.195 38.3496C118.637 38.14 117.974 37.9653 117.241 37.8256C116.509 37.6858 115.776 37.5112 115.008 37.3365C114.241 37.1618 113.473 36.9522 112.74 36.7077C112.007 36.4632 111.379 36.1487 110.786 35.6946C110.228 35.2754 109.739 34.7514 109.425 34.0876C109.076 33.4239 108.902 32.6553 108.902 31.6771C108.902 30.6291 109.146 29.7907 109.67 29.092C110.158 28.3933 110.821 27.8344 111.589 27.4151C112.356 26.9959 113.229 26.6815 114.171 26.5068C115.113 26.3322 116.02 26.2623 116.858 26.2623C117.835 26.2623 118.777 26.3671 119.649 26.5767C120.521 26.7863 121.359 27.1007 122.057 27.5898C122.789 28.044 123.383 28.6728 123.836 29.4064C124.325 30.14 124.604 31.0483 124.743 32.0963H120.382C120.172 31.0833 119.719 30.4195 119.021 30.0702C118.288 29.7208 117.486 29.5461 116.544 29.5461C116.264 29.5461 115.881 29.5811 115.497 29.616C115.078 29.6859 114.729 29.7557 114.345 29.8955C113.996 30.0352 113.682 30.2448 113.438 30.4894C113.194 30.7339 113.054 31.0832 113.054 31.5025C113.054 32.0265 113.229 32.4108 113.578 32.7252C113.927 33.0396 114.38 33.2841 114.973 33.5287C115.532 33.7383 116.195 33.9129 116.927 34.0527C117.66 34.1924 118.428 34.3671 119.195 34.5418C119.963 34.7164 120.696 34.926 121.429 35.1706C122.161 35.4151 122.824 35.7295 123.383 36.1837C123.941 36.6029 124.429 37.1269 124.778 37.7557C125.127 38.3845 125.302 39.188 125.302 40.0963C125.302 41.2142 125.057 42.1575 124.534 42.9609C124.011 43.7295 123.348 44.3933 122.545 44.8823C121.743 45.3714 120.8 45.7208 119.823 45.9653C118.812 46.1749 117.835 46.3146 116.858 46.3146C115.671 46.3146 114.555 46.1749 113.543 45.8954C112.531 45.616 111.624 45.1967 110.891 44.6727C110.158 44.1138 109.565 43.45 109.146 42.6116C108.727 41.8081 108.483 40.8299 108.448 39.6771H112.67V39.712H112.705ZM126.488 26.8213H129.663V21.092H133.851V26.7863H137.619V29.8955H133.851V40.0265C133.851 40.4806 133.885 40.8299 133.92 41.1793C133.955 41.4937 134.06 41.7732 134.165 41.9828C134.304 42.1924 134.513 42.3671 134.758 42.4719C135.037 42.5767 135.386 42.6465 135.874 42.6465C136.153 42.6465 136.467 42.6465 136.747 42.6116C137.026 42.5767 137.34 42.5417 137.619 42.4719V45.7208C137.165 45.7906 136.712 45.8256 136.258 45.8605C135.805 45.9304 135.386 45.9304 134.897 45.9304C133.781 45.9304 132.908 45.8256 132.245 45.616C131.582 45.4064 131.059 45.0919 130.675 44.7077C130.291 44.2884 130.047 43.7994 129.908 43.2055C129.768 42.6116 129.698 41.878 129.663 41.1094V29.9304H126.488V26.7514V26.8213ZM140.55 26.8213H144.493V29.4064H144.563C145.156 28.2885 145.958 27.5199 147.005 27.0309C148.052 26.5418 149.169 26.2972 150.425 26.2972C151.925 26.2972 153.216 26.5418 154.333 27.1007C155.449 27.6248 156.357 28.3234 157.089 29.2667C157.822 30.175 158.38 31.2579 158.729 32.4806C159.078 33.7033 159.288 35.0308 159.288 36.3933C159.288 37.6858 159.113 38.9086 158.799 40.0963C158.45 41.2841 157.962 42.3671 157.299 43.2753C156.636 44.1836 155.798 44.9173 154.751 45.4762C153.705 46.0352 152.518 46.3146 151.123 46.3146C150.529 46.3146 149.901 46.2448 149.308 46.14C148.715 46.0352 148.122 45.8605 147.563 45.616C147.005 45.3714 146.482 45.057 146.028 44.6727C145.54 44.2884 145.156 43.8343 144.842 43.3452H144.772V52.8124H140.585V26.8213H140.55ZM155.17 36.3234C155.17 35.485 155.065 34.6466 154.821 33.8431C154.612 33.0396 154.263 32.3409 153.809 31.7121C153.356 31.0832 152.797 30.5942 152.169 30.2099C151.506 29.8256 150.739 29.6509 149.901 29.6509C148.157 29.6509 146.831 30.2448 145.924 31.4675C145.051 32.6902 144.598 34.3322 144.598 36.3583C144.598 37.3365 144.702 38.2099 144.947 39.0134C145.191 39.8168 145.505 40.5155 145.993 41.1094C146.447 41.7033 147.005 42.1574 147.668 42.5068C148.331 42.8561 149.064 43.0308 149.936 43.0308C150.913 43.0308 151.681 42.8212 152.344 42.4369C153.007 42.0526 153.53 41.5286 153.984 40.9347C154.403 40.3059 154.717 39.6072 154.891 38.8038C155.065 37.9653 155.17 37.1618 155.17 36.3234ZM162.533 19.5898H166.72V23.5374H162.533V19.5898ZM162.533 26.8213H166.72V45.7906H162.533V26.8213ZM170.453 19.5898H174.64V45.7906H170.453V19.5898ZM187.411 46.3146C185.911 46.3146 184.55 46.0701 183.364 45.5461C182.177 45.0221 181.2 44.3583 180.363 43.485C179.56 42.6116 178.932 41.5286 178.514 40.3059C178.095 39.0832 177.851 37.7208 177.851 36.2885C177.851 34.8562 178.06 33.5287 178.514 32.306C178.932 31.0833 179.56 30.0352 180.363 29.1269C181.166 28.2536 182.177 27.5549 183.364 27.0658C184.55 26.5767 185.911 26.2972 187.411 26.2972C188.912 26.2972 190.273 26.5418 191.459 27.0658C192.645 27.5549 193.622 28.2536 194.46 29.1269C195.262 30.0003 195.89 31.0833 196.309 32.306C196.728 33.5287 196.972 34.8562 196.972 36.2885C196.972 37.7557 196.763 39.0832 196.309 40.3059C195.855 41.5286 195.262 42.5767 194.46 43.485C193.657 44.3583 192.645 45.057 191.459 45.5461C190.273 46.0352 188.947 46.3146 187.411 46.3146ZM187.411 42.9959C188.319 42.9959 189.156 42.7863 189.819 42.402C190.517 42.0177 191.04 41.4937 191.494 40.8649C191.947 40.2361 192.261 39.5024 192.471 38.7339C192.68 37.9304 192.785 37.1269 192.785 36.2885C192.785 35.485 192.68 34.6815 192.471 33.878C192.261 33.0745 191.947 32.3758 191.494 31.747C191.04 31.1182 190.482 30.6291 189.819 30.2448C189.121 29.8606 188.319 29.6509 187.411 29.6509C186.504 29.6509 185.667 29.8606 185.004 30.2448C184.306 30.6291 183.782 31.1531 183.329 31.747C182.875 32.3758 182.561 33.0745 182.352 33.878C182.142 34.6815 182.038 35.485 182.038 36.2885C182.038 37.1269 182.142 37.9304 182.352 38.7339C182.561 39.5374 182.875 40.2361 183.329 40.8649C183.782 41.4937 184.341 42.0177 185.004 42.402C185.702 42.8212 186.504 42.9959 187.411 42.9959ZM198.228 26.8213H201.403V21.092H205.591V26.7863H209.359V29.8955H205.591V40.0265C205.591 40.4806 205.626 40.8299 205.66 41.1793C205.695 41.4937 205.8 41.7732 205.905 41.9828C206.044 42.1924 206.254 42.3671 206.498 42.4719C206.777 42.5767 207.126 42.6465 207.614 42.6465C207.894 42.6465 208.208 42.6465 208.487 42.6116C208.766 42.5767 209.08 42.5417 209.359 42.4719V45.7208C208.905 45.7906 208.452 45.8256 207.998 45.8605C207.545 45.9304 207.126 45.9304 206.637 45.9304C205.521 45.9304 204.649 45.8256 203.986 45.616C203.323 45.4064 202.799 45.0919 202.415 44.7077C202.032 44.2884 201.787 43.7994 201.648 43.2055C201.508 42.6116 201.438 41.878 201.403 41.1094V29.9304H198.228V26.7514V26.8213Z" fill="black"/>
<path d="M50.1413 19.5899H30.985L25.0881 1.35413L19.1563 19.5899L0 19.5549L15.4925 30.8387L9.56069 49.0745L25.0532 37.7907L40.5457 49.0745L34.6488 30.8387L50.1413 19.5899Z" fill="#00B67A"/>
<path d="M35.9765 34.961L34.6506 30.8387L25.0898 37.7907L35.9765 34.961Z" fill="#005128"/>
</svg>

<svg width="211" height="65" viewBox="0 0 211 65" fill="none" xmlns="http://www.w3.org/2000/svg"><path d="M55.027 19.59h21.18v3.947h-8.34v22.254h-4.57V23.537h-8.305l.035-3.947zM75.3 26.82h3.908v3.668h.07c.14-.524.384-1.013.732-1.502.35-.489.768-.943 1.292-1.327a5.71 5.71 0 011.674-.979 4.871 4.871 0 011.85-.384c.488 0 .837.035 1.012.035.174.035.384.07.558.07v4.017a7.039 7.039 0 00-.907-.14c-.314-.034-.594-.07-.907-.07-.698 0-1.361.14-1.99.42-.627.28-1.15.699-1.64 1.223a6.629 6.629 0 00-1.116 2.026c-.28.803-.419 1.747-.419 2.795v9.013H75.23l.07-18.865zm30.287 18.97h-4.117v-2.655h-.07c-.523.978-1.291 1.711-2.303 2.305-1.012.594-2.059.874-3.105.874-2.478 0-4.292-.594-5.409-1.852-1.117-1.223-1.675-3.109-1.675-5.59v-12.05h4.187v11.633c0 1.677.314 2.865.977 3.529.629.699 1.536 1.048 2.687 1.048.873 0 1.605-.14 2.198-.42.594-.279 1.082-.628 1.431-1.082.384-.455.628-1.014.803-1.642.174-.63.244-1.328.244-2.061V26.82h4.187v18.97h-.035zm7.118-6.079c.14 1.223.593 2.061 1.396 2.585.803.49 1.78.734 2.896.734.384 0 .838-.035 1.326-.105.489-.07.977-.175 1.396-.35a2.461 2.461 0 001.082-.768c.279-.35.418-.768.383-1.292-.035-.524-.209-.979-.593-1.328-.384-.35-.837-.594-1.396-.838a12.073 12.073 0 00-1.954-.524c-.732-.14-1.465-.315-2.233-.49a24.198 24.198 0 01-2.268-.628 6.529 6.529 0 01-1.954-1.013c-.558-.42-1.047-.944-1.361-1.607-.349-.664-.523-1.433-.523-2.41 0-1.049.244-1.887.768-2.586.488-.699 1.151-1.258 1.919-1.677a8.699 8.699 0 012.582-.908 14.77 14.77 0 012.687-.245c.977 0 1.919.105 2.791.315.872.21 1.71.524 2.408 1.013a5.532 5.532 0 011.779 1.816c.489.734.768 1.642.907 2.69h-4.361c-.21-1.013-.663-1.676-1.361-2.026-.733-.35-1.535-.524-2.477-.524-.28 0-.663.035-1.047.07-.419.07-.768.14-1.152.28-.349.14-.663.349-.907.593-.244.245-.384.594-.384 1.014 0 .523.175.908.524 1.222.349.315.802.56 1.395.804.559.21 1.222.384 1.954.524.733.14 1.501.314 2.268.489.768.174 1.501.384 2.234.629.732.244 1.395.559 1.954 1.013a5.034 5.034 0 011.395 1.572c.349.629.524 1.432.524 2.34 0 1.118-.245 2.062-.768 2.865a6.518 6.518 0 01-1.989 1.921c-.802.49-1.745.839-2.722 1.083-1.011.21-1.988.35-2.965.35-1.187 0-2.303-.14-3.315-.42-1.012-.279-1.919-.698-2.652-1.222-.733-.56-1.326-1.223-1.745-2.061-.419-.804-.663-1.782-.698-2.935h4.222v.035h.035zm13.783-12.89h3.175v-5.73h4.188v5.694h3.768v3.11h-3.768v10.13c0 .455.034.804.069 1.153.035.315.14.594.245.804.139.21.348.384.593.489.279.105.628.175 1.116.175.279 0 .593 0 .873-.035.279-.035.593-.07.872-.14v3.249c-.454.07-.907.105-1.361.14-.453.07-.872.07-1.361.07-1.116 0-1.989-.105-2.652-.315-.663-.21-1.186-.524-1.57-.908-.384-.42-.628-.909-.767-1.502-.14-.594-.21-1.328-.245-2.097V29.93h-3.175v-3.179.07zm14.062 0h3.943v2.584h.07c.593-1.117 1.395-1.886 2.442-2.375 1.047-.49 2.164-.734 3.42-.734 1.5 0 2.791.245 3.908.804 1.116.524 2.024 1.222 2.756 2.166a9.035 9.035 0 011.64 3.214 14.32 14.32 0 01.559 3.912 14.36 14.36 0 01-.489 3.703c-.349 1.188-.837 2.271-1.5 3.18a7.427 7.427 0 01-2.548 2.2c-1.046.56-2.233.839-3.628.839-.594 0-1.222-.07-1.815-.175a7.734 7.734 0 01-1.745-.524 6.27 6.27 0 01-1.535-.943 5.329 5.329 0 01-1.186-1.328h-.07v9.467h-4.187v-25.99h-.035zm14.62 9.501a8.53 8.53 0 00-.349-2.48 6.316 6.316 0 00-1.012-2.13 5.577 5.577 0 00-1.64-1.503c-.663-.384-1.43-.56-2.268-.56-1.744 0-3.07.595-3.977 1.818-.873 1.222-1.326 2.864-1.326 4.89 0 .979.104 1.852.349 2.655.244.804.558 1.503 1.046 2.096a4.992 4.992 0 001.675 1.398c.663.35 1.396.524 2.268.524.977 0 1.745-.21 2.408-.594.663-.384 1.186-.908 1.64-1.502a6.137 6.137 0 00.907-2.131c.174-.839.279-1.642.279-2.48zm7.363-16.733h4.187v3.947h-4.187V19.59zm0 7.231h4.187v18.97h-4.187V26.82zm7.92-7.231h4.187v26.2h-4.187v-26.2zm16.958 26.725c-1.5 0-2.861-.245-4.047-.769-1.187-.524-2.164-1.188-3.001-2.061-.803-.873-1.431-1.956-1.849-3.18a12.424 12.424 0 01-.663-4.017c0-1.432.209-2.76.663-3.982a9.274 9.274 0 011.849-3.18c.803-.872 1.814-1.571 3.001-2.06 1.186-.49 2.547-.769 4.047-.769 1.501 0 2.862.245 4.048.769a8.695 8.695 0 013.001 2.06c.802.874 1.43 1.957 1.849 3.18.419 1.223.663 2.55.663 3.983 0 1.467-.209 2.794-.663 4.017-.454 1.223-1.047 2.27-1.849 3.179-.803.873-1.815 1.572-3.001 2.061-1.186.49-2.512.769-4.048.769zm0-3.32c.908 0 1.745-.209 2.408-.593.698-.384 1.221-.908 1.675-1.537.453-.629.767-1.363.977-2.131a9.542 9.542 0 000-4.856c-.21-.803-.524-1.502-.977-2.131a5.308 5.308 0 00-1.675-1.502c-.698-.384-1.5-.594-2.408-.594-.907 0-1.744.21-2.407.594-.698.384-1.222.908-1.675 1.502-.454.629-.768 1.328-.977 2.131a9.564 9.564 0 000 4.856c.209.803.523 1.502.977 2.13a5.408 5.408 0 001.675 1.538c.698.42 1.5.594 2.407.594zm10.817-16.174h3.175v-5.729h4.188v5.694h3.768v3.11h-3.768v10.13c0 .455.035.804.069 1.153.035.315.14.594.245.804.139.21.349.384.593.489.279.105.628.175 1.116.175.28 0 .594 0 .873-.035s.593-.07.872-.14v3.249c-.454.07-.907.105-1.361.14-.453.07-.872.07-1.361.07-1.116 0-1.988-.105-2.651-.315-.663-.21-1.187-.524-1.571-.908-.383-.42-.628-.909-.767-1.502-.14-.594-.21-1.328-.245-2.097V29.93h-3.175v-3.179.07z" fill="#000"/><path d="M50.141 19.59H30.985L25.088 1.354 19.156 19.59 0 19.555l15.492 11.284-5.931 18.236L25.053 37.79l15.493 11.284-5.897-18.236 15.492-11.25z" fill="#00B67A"/><path d="M35.977 34.961l-1.326-4.122-9.561 6.952 10.887-2.83z" fill="#005128"/></svg>
